packages/assets/application-icons/18.Bell.svg

<?xml version="1.0" encoding="UTF-8"?>
<svg width="24px" height="24px" viewBox="0 0 24 24" version="1.1" xmlns="http://www.w3.org/2000/svg" xmlns:xlink="http://www.w3.org/1999/xlink">
    <title>18.Bell</title>
    <g id="Page-1" stroke="none" stroke-width="1" fill="none" fill-rule="evenodd">
        <g id="Artboard" transform="translate(-235.000000, -169.000000)" fill="#000000" fill-rule="nonzero">
            <g id="18.Bell" transform="translate(235.000000, 169.000000)">
                <path d="M10,19 L14,19.0233918 C13.7544762,20.1817706 12.9371833,20.9895046 12,21 C11.0542861,20.9988992 10.2301513,20.1747644 10,19 L10,19 Z M11.996387,3 L12.2701886,3.00664991 C13.7262234,3.07742868 15.1087155,3.71075004 16.1440321,4.78861364 C17.2440559,5.93384372 17.8620429,7.48710904 17.8620429,9.10670896 L17.8620429,9.10670896 L17.8620429,11.8932655 C17.8620429,14.4920753 19.883701,17.1007665 19.883701,17.1007665 C20.0144159,17.2574315 20.037166,17.4824395 19.9406491,17.6640066 C19.8653543,17.8681689 19.6761328,18.0021273 19.4660815,18 L19.4660815,18 L4.5361839,18 C4.34025759,17.9989595 4.15811673,17.8948511 4.05212492,17.7232951 C3.96602584,17.5229097 3.98766401,17.2901265 4.10907304,17.1106479 C5.26504236,15.6187377 5.96875338,13.8026396 6.13073114,11.8932655 L6.13073114,11.8932655 L6.13073114,9.10670896 C6.13073114,7.48710904 6.74871811,5.93384372 7.84874197,4.78861364 C8.94876583,3.64338356 10.4407184,3 11.996387,3 L11.996387,3 Z" id="Bell"></path>
            </g>
        </g>
    </g>
</svg>

<svg width="24" height="24" viewBox="0 0 24 24" xmlns="http://www.w3.org/2000/svg"><path d="m10 19 4 .023c-.246 1.159-1.063 1.967-2 1.977-.946-.001-1.77-.825-2-2Zm1.996-16 .274.007a5.76 5.76 0 0 1 3.874 1.782 6.236 6.236 0 0 1 1.718 4.318v2.786c0 2.6 2.022 5.208 2.022 5.208a.51.51 0 0 1 .057.563.504.504 0 0 1-.475.336H4.536a.574.574 0 0 1-.484-.277.644.644 0 0 1 .057-.612 9.886 9.886 0 0 0 2.022-5.218V9.107c0-1.62.618-3.173 1.718-4.318A5.75 5.75 0 0 1 11.996 3Z" fill="#000" fill-rule="nonzero"/></svg>
